X: 36736
T: Sheepskins And Beeswax
R: reel
M: 4/4
K: Adorian
EA ~A2 BAGB|AGAa gfef|(3 gfe fd efed|Beed BAAG|
EA ~A2 BAGB|AGAa gfef|(3 gfe fd efed|1 Beed BAAG:|2 Beed BAAg||
a3 g aega|bagf e3 f|(3 gfe fd efed|Beed BAAg|
a3 g aega|bagf e3 f|(3 gfe fd efed|1 Beed BAAg:|2 Beed BAAG||

